icons/circle/48/deepin-media-player.svg

<svg xmlns="http://www.w3.org/2000/svg" xmlns:xlink="http://www.w3.org/1999/xlink" viewBox="0 0 48 48">
 <defs>
  <linearGradient id="linear0" gradientUnits="userSpaceOnUse" x1="0" x2="13.547" gradientTransform="matrix(0,-3.543307,3.543307,0,-0.000000350784,48)">
   <stop style="stop-color:#008ef3;stop-opacity:1"/>
   <stop offset="1" style="stop-color:#00d4ff;stop-opacity:1"/>
  </linearGradient>
  <linearGradient xlink:href="#linear0" id="linearGradient3082" gradientUnits="userSpaceOnUse" gradientTransform="scale(3.543307,3.543307)" x1="6.803" y1="12.76" x2="6.795" y2="0.766"/>
  <linearGradient xlink:href="#linear0" id="linearGradient3086" gradientUnits="userSpaceOnUse" gradientTransform="matrix(0,-3.543307,3.543307,0,-3.50784e-7,48)" x1="0" x2="13.547"/>
 </defs>
 <g>
  <path d="m 36.31 5 c 5.859 4.062 9.688 10.831 9.688 18.5 c 0 12.426 -10.07 22.5 -22.5 22.5 c -7.669 0 -14.438 -3.828 -18.5 -9.688 c 1.037 1.822 2.306 3.499 3.781 4.969 c 4.085 3.712 9.514 5.969 15.469 5.969 c 12.703 0 23 -10.298 23 -23 c 0 -5.954 -2.256 -11.384 -5.969 -15.469 c -1.469 -1.475 -3.147 -2.744 -4.969 -3.781 z m 4.969 3.781 c 3.854 4.113 6.219 9.637 6.219 15.719 c 0 12.703 -10.297 23 -23 23 c -6.081 0 -11.606 -2.364 -15.719 -6.219 c 4.16 4.144 9.883 6.719 16.219 6.719 c 12.703 0 23 -10.298 23 -23 c 0 -6.335 -2.575 -12.06 -6.719 -16.219 z" style="opacity:0.05"/>
  <path d="m 41.28 8.781 c 3.712 4.085 5.969 9.514 5.969 15.469 c 0 12.703 -10.297 23 -23 23 c -5.954 0 -11.384 -2.256 -15.469 -5.969 c 4.113 3.854 9.637 6.219 15.719 6.219 c 12.703 0 23 -10.298 23 -23 c 0 -6.081 -2.364 -11.606 -6.219 -15.719 z" style="opacity:0.1"/>
  <path d="m 31.25 2.375 c 8.615 3.154 14.75 11.417 14.75 21.13 c 0 12.426 -10.07 22.5 -22.5 22.5 c -9.708 0 -17.971 -6.135 -21.12 -14.75 a 23 23 0 0 0 44.875 -7 a 23 23 0 0 0 -16 -21.875 z" style="opacity:0.2"/>
 </g>
 <path d="M 24 1 C 11.297 1 1 11.297 1 24 C 1 36.703 11.297 47 24 47 C 36.703 47 47 36.703 47 24 C 47 11.297 36.703 1 24 1 z " style="fill:url(#linearGradient3086);stroke:none"/>
 <path d="m 25,10 0.004,0 C 33.285,10 40,16.715 40,25 l 0,0.004 C 40,33.285 33.285,40 25.004,40 L 25,40 C 16.715,40 10,33.285 10,25.004 L 10,25 c 0,-8.285 6.715,-15 15,-15 m 0,0" style="fill:#000;opacity:0.1;fill-opacity:1;stroke:none;fill-rule:evenodd"/>
 <g>
  <path d="m 24,9 0.004,0 C 32.285,9 39,15.715 39,24 l 0,0.004 C 39,32.285 32.285,39 24.004,39 L 24,39 C 15.715,39 9,32.285 9,24.004 L 9,24 C 9,15.715 15.715,9 24,9 m 0,0" style="fill:#ededed;fill-opacity:1;stroke:none;fill-rule:evenodd"/>
  <path d="M 19,14 19,34 34,24 M 24,20 c 2.43,0.012 3.996,2.172 4,4 0,3 -3,4 -4,4 l 0,-2 c 3.355,-0.336 2.258,-4.871 -1,-4 l 0,6 -2,0 0,-6.438 c 0,-0.547 1,-1.563 3,-1.563 m 0,0" style="fill:url(#linearGradient3082);stroke:none;fill-rule:nonzero"/>
 </g>
 <g>
  <path d="m 40.03 7.531 c 3.712 4.084 5.969 9.514 5.969 15.469 0 12.703 -10.297 23 -23 23 c -5.954 0 -11.384 -2.256 -15.469 -5.969 4.178 4.291 10.01 6.969 16.469 6.969 c 12.703 0 23 -10.298 23 -23 0 -6.462 -2.677 -12.291 -6.969 -16.469 z" style="opacity:0.1"/>
 </g>
</svg>

<svg xmlns="http://www.w3.org/2000/svg" xmlns:xlink="http://www.w3.org/1999/xlink" viewBox="0 0 48 48">
  <defs>
    <linearGradient id="a" gradientUnits="userSpaceOnUse" x2="13.547" gradientTransform="matrix(0 -3.5433 3.5433 0 0 48)">
      <stop stop-color="#008ef3"/>
      <stop offset="1" stop-color="#00d4ff"/>
    </linearGradient>
    <linearGradient xlink:href="#a" id="c" gradientUnits="userSpaceOnUse" gradientTransform="scale(3.5433)" x1="6.803" y1="12.76" x2="6.795" y2=".766"/>
    <linearGradient xlink:href="#a" id="b" gradientUnits="userSpaceOnUse" gradientTransform="matrix(0 -3.5433 3.5433 0 0 48)" x2="13.547"/>
  </defs>
  <path d="M36.31 5c5.859 4.062 9.688 10.831 9.688 18.5 0 12.426-10.07 22.5-22.5 22.5-7.669 0-14.438-3.828-18.5-9.688a23.24 23.24 0 0 0 3.781 4.969 22.923 22.923 0 0 0 15.469 5.969c12.703 0 23-10.298 23-23a22.92 22.92 0 0 0-5.969-15.469A23.216 23.216 0 0 0 36.31 5zm4.969 3.781A22.911 22.911 0 0 1 47.498 24.5c0 12.703-10.297 23-23 23a22.909 22.909 0 0 1-15.719-6.219C12.939 45.425 18.662 48 24.998 48c12.703 0 23-10.298 23-23 0-6.335-2.575-12.06-6.719-16.219z" opacity=".05"/>
  <path d="M41.28 8.781a22.923 22.923 0 0 1 5.969 15.469c0 12.703-10.297 23-23 23A22.92 22.92 0 0 1 8.78 41.281 22.911 22.911 0 0 0 24.499 47.5c12.703 0 23-10.298 23-23A22.909 22.909 0 0 0 41.28 8.781z" opacity=".1"/>
  <path d="M31.25 2.375C39.865 5.529 46 13.792 46 23.505c0 12.426-10.07 22.5-22.5 22.5-9.708 0-17.971-6.135-21.12-14.75a23 23 0 0 0 44.875-7 23 23 0 0 0-16-21.875z" opacity=".2"/>
  <path d="M24 1C11.297 1 1 11.297 1 24s10.297 23 23 23 23-10.297 23-23S36.703 1 24 1z" fill="url(#b)"/>
  <path d="M25 10h.004C33.285 10 40 16.715 40 25v.004C40 33.285 33.285 40 25.004 40H25c-8.285 0-15-6.715-15-14.996V25c0-8.285 6.715-15 15-15m0 0" opacity=".1" fill-rule="evenodd"/>
  <g>
    <path d="M24 9h.004C32.285 9 39 15.715 39 24v.004C39 32.285 32.285 39 24.004 39H24c-8.285 0-15-6.715-15-14.996V24c0-8.285 6.715-15 15-15m0 0" fill="#ededed" fill-rule="evenodd"/>
    <path d="M19 14v20l15-10m-10-4c2.43.012 3.996 2.172 4 4 0 3-3 4-4 4v-2c3.355-.336 2.258-4.871-1-4v6h-2v-6.438c0-.547 1-1.563 3-1.563m0 0" fill="url(#c)"/>
  </g>
  <g>
    <path d="M40.03 7.531A22.922 22.922 0 0 1 45.999 23c0 12.703-10.297 23-23 23A22.92 22.92 0 0 1 7.53 40.031C11.708 44.322 17.54 47 23.999 47c12.703 0 23-10.298 23-23 0-6.462-2.677-12.291-6.969-16.469z" opacity=".1"/>
  </g>
</svg>
